X:53
T:Luring II
T:(Sv. L. Sm. 164)
R:Schottis
O:Virestad, Småland
S:efter Magnus Persson
S:efter Spel Bengten
S:efter Luringen
B:Svenska Låtar Småland
N:Sv. L. Sm. 164
Z:Jonas Brunskog
N:Står betecknad som polska i Svenska Låtar. Möjligen avses brännvinspolska.
M:2/4
L:1/8
K:D
|:(d2-d/c/)(c/<A/)|cc/c/ {Bc}BA|F>[AF] [AF]A|c/(c/e/)e/ {/e}d2:|
|:[Ae]e/e/ e=f|{/=f}a>^g ge|c>[ce] [ce][ce]|e{/e}d/>c/ d2:|
(:musicend:)

(:music:)
